teeny/outline/more-vertical.svg

<svg width="15" height="15" viewBox="0 0 15 15" fill="none" xmlns="http://www.w3.org/2000/svg">
<path d="M7.5 3C7.22386 3 7 2.77614 7 2.5C7 2.22386 7.22386 2 7.5 2C7.77614 2 8 2.22386 8 2.5C8 2.77614 7.77614 3 7.5 3Z" stroke="black"/>
<path d="M7.5 8C7.22386 8 7 7.77614 7 7.5C7 7.22386 7.22386 7 7.5 7C7.77614 7 8 7.22386 8 7.5C8 7.77614 7.77614 8 7.5 8Z" stroke="black"/>
<path d="M7.5 13C7.22386 13 7 12.7761 7 12.5C7 12.2239 7.22386 12 7.5 12C7.77614 12 8 12.2239 8 12.5C8 12.7761 7.77614 13 7.5 13Z" stroke="black"/>
</svg>

<svg viewBox="0 0 15 15" xmlns="http://www.w3.org/2000/svg"><g fill="none" stroke="#000"><path d="M7.5 3c-.28 0-.5-.23-.5-.5 0-.28.22-.5.5-.5 .27 0 .5.22.5.5 0 .27-.23.5-.5.5Z"/><path d="M7.5 8c-.28 0-.5-.23-.5-.5 0-.28.22-.5.5-.5 .27 0 .5.22.5.5 0 .27-.23.5-.5.5Z"/><path d="M7.5 13c-.28 0-.5-.23-.5-.5 0-.28.22-.5.5-.5 .27 0 .5.22.5.5 0 .27-.23.5-.5.5Z"/></g></svg>
